X:1
T:Title
%%score 1 2 3
L:1/8
Q:1/4=110
M:6/8
K:D
V:1 treble nm="Grand Piano"
V:2 bass nm="Grand Piano, Melody"
V:3 bass nm="Grand Piano"
V:1
 z3 A3 | d2 d f2 d | B3 c2 B | A2 d e2 f | d2 A B2 A | d2 d f2 d | B3 c2 d | e2 e f2 e | d6 | %9
 z3 A3 | d2 d e2 e | d3 c2 B | A2 d e2 f | d2 A B2 A | d2 d f2 d | B3 c2 d | e2 e f2 e | d6 | %18
 z3 A3 | d2 d e2 e | d3 c2 B | A2 d e2 f | d2 A B2 A | d2 d f2 d | B3 c2 d | e2 e f2 e | d6 |] %27
V:2
 z3 F,3 | A,2 A, A,F,A, | D3 F2 D | E2 A,[K:bass] A,2 F, | G,2 F, E,2 F, | A,2 A, A,F,A, | %6
 D3 F2 D | E2 A, A,B,C | D6 | z3 D3 | F2 F B,2 B, | G2 F E2 D | E2[K:bass] A, A,2 F, | %13
 G,2 F, E,2 F, | A,2 A, A,F,A, | D3 F2 D | E2 A, A,B,C | D6 | z3 D3 | F2 F B,2 B, | G2 F E2 D | %21
 E2[K:bass] A, A,2 F, | G,2 F, E,2 F, | A,2 A, A,F,A, | D3 F2 D | E2 A, A,B,C | D6 |] %27
V:3
 z3 D,3 | D,2 D, F,2 D, | G,3 F,2 G, | A,2 A, A,2 F, | D,3 E,2 F, | D,2 D, F,2 D, | G,3 F,2 G, | %7
 A,2 A, F,2 A, | D,6 | z3 D,3 | D,2 D, E,2 E, | G,3 A,2 B, | A,2 A, A,2 F, | D,3 E,2 F, | %14
 D,2 D, F,2 D, | G,3 F,2 G, | A,2 A, F,2 A, | D,6 | z3 D,3 | D,2 D, E,2 E, | G,3 A,2 B, | %21
 A,2 A, A,2 F, | D,3 E,2 F, | D,2 D, F,2 D, | G,3 F,2 G, | A,2 A, F,2 A, | D,6 |] %27

